X:3
T:Old Bell Cow (R-153)
R:reel
Z:transcribed to ABC by Debby Knight
M:C|
L:1/8
K:AMix
"A"A=cAG EGED | CA,2CA,3A, | A,B,CE A2AG | "D"FD2F D3A- |
"A"A=cAG EGED | CA,2C A,2CB, |A,B,CE AEAG |1 "D"FD2E D3A-:|2 "D"FD2E D4 |]
|: "A"e3f e2ed | cdef e2A2 | "G"d2d2 BAGB | dBd=c BG3 |
"A"e3f e2ed | cdef efef | "G"gfgf efed | "A"cABc A4 :|
%%text 08/20/10 

#include "LeftHeader.h"
% ---------- set 74 ----------
% Set Americain (D) / Evit Gabriel (Em) / Hommage a Edmond Pariseau (A and D)
%%text Set 74
%%vskip -1cm
